X:476
%%etbk:tnset id:195,pos:1,rep:3x,ant:
T:Hot Asphalt
M:6/8
R:song
L:1/8
K:Dm
F2E |:"Dm"D2E F2E |D2C A,2C |"F"F2G A2F | "C"G3 A2c|
|1"Dm"d2c A2G | F2D E2D |"C"C2C C2A, | C3 F2E :|
|2"Dm"d2c A2G | "C"F2D E2C | "Dm"D3 D3| D3 A2B|
P:Chorus
|:"F"c2c c2c|c2A F2A|c2c c2A|c3 A2c|"Dm"d2c A2G|F2D E2D|
"C"C2C C2A,|C3 F2E|"Dm"D2E F2E|D2C A,2C|"F"F2G A2F|
"C"G3 A2c|"Dm"d2c A2G|"C"F2D E2C|"Dm"D3 D3| D3:|
P:tag
ABc|d2c A2G|"C"F2D E2C|"Dm"D3 D3| D6|


